X:1
T:WTC-Fugue1
T:Bach
%%score 1 2 3 4
L:1/8
M:4/4
K:C
V:1 treble nm="Piano" snm="Pno."
V:2 treble nm="Piano" snm="Pno."
V:3 bass nm="Piano" snm="Pno."
V:4 bass nm="Piano" snm="Pno."
V:1
 z8 | z4 z GAB | c3/2d/4c/4 Be Ad- d/e/d/c/ | B/G/A/B/ c/B/c/d/ e/d/e/^f/ gB | %4
 cA d/c/B/A/ G>G F/E/F/G/ | A/G/A/B/ c4- c2 || z cde f3/2g/4f/4 ea | dg- g/a/g/f/ ea- a/b/a/g/ | %8
 f4 e>^f g2- | g2 ^f2 g/=f/e/d/ c/d/c/B/ | A/c/B/A/ G z z/ c/B/A/ ^Ge | %11
 dc/B/ A/^G/A/B/ c/^F/G/A/ BA/B/ | cfed- dc/B/ (3B/4c/4B/4(3c/4B/4c/4B/A/ | A2 z2 z4 | z4 z GAB | %15
 c3/2d/4c/4 Bc de f3/2g/4f/4 | eadg- g/a/g/f/ ea | d_b ag/f/ g/f/g/e/ f/g/(3g/4a/4g/4f/4g/4 | %18
 a/^c/d/g/ e/4f/4ed/ d z z2 | z2 z2 z2 z G | AB c3/2d/4c/4 BeAd- | %21
 d/e/d/c/ B/c/d/e/ f/g/a/g/ f/e/d/c/ | B2 cd G c2 B || c2 B_B A d2 c | de f2- f/a/g/f/ e/f/e/d/ | %25
 c4 z/ G/4A/4B/c/ d/e/f- | f/4c/4d/4e/4f/g/ a>b c'4 |] %27
V:2
 z CDE F3/2G/4F/4 EA | DG- G/A/G/F/ E/F/E/D/ C/D/C/B,/ | A,^F G2- GF/E/ FD | GFED C z z G- | %4
 GF/E/ F2- F/F/E D2 | CF z/ G/F/E/ FD G2- || G2 z2 z4 | z8 | z GAB c3/2d/4c/4 Be | %9
 Ad- d/e/d/c/ B z z D | E^F G3/2A/4G/4 FBEA- | A/B/A/^G/ ^F=F ED D/E/^F/G/ | %12
 A/^G/A/B/ G/^F/G/A/ B z z2 | z CDE F3/2G/4F/4 EA | DG- G/A/G/F/ EE^FG- | G^F^G A2 =GAB | %16
 c3/2d/4c/4 Be Ad- d/e/d/c/ | Bg^cd ecde | A z z E ^FG A3/2B/4A/4 | Gc^FB- B/c/B/A/ G/F/E/D/ | %20
 E2 D2 D/A/G/F/ E/G/F/A/ | G2- G/A/_B c2 dG | G2- GF- FE D2 || E A2 G2 FGA | %24
 _B3/2c/4B/4 Ad Gc- c/d/c/B/ | A/_B/A/G/ F/G/F/E/ D2- D>G | A2 z/ f/d [ceg]4 |] %27
V:3
 z8 | z8 | z8 | z G,A,B, C3/2D/4C/4 B,E | A,D- D/E/D/C/ B, C2 _B, | A,D G,C z/ A,/B,/C/ D2 || %6
 G,2 z G, A,B, C3/2D/4C/4 | B,EA,D- D/E/D/C/ B,E- | E2 D2 C/B,/C/A,/ E/D/C/B,/ | %9
 C/A,/B,/C/ D/C/B,/A,/ G,2 z2 | z8 | z E,^F,^G, A,3/2B,/4A,/4 G,C | ^F,B,- B,/C/B,/A,/ ^G, A,2 G, | %13
 A,2 z G,A,B, C3/2D/4C/4 | B,EA,D- DG, D2 | CA, E2 D z z2 | z A,B,^C D3/2E/4D/4 =CF | %17
 B,E- E/F/E/D/ ^C z z2 | z A,B,^C D3/2E/4D/4 =C^F | B,E- E/^F/E/D/ C4- | %20
 C/D/C/B,/ A,/G,/A,/^F,/ G, B,CD | E3/2F/4E/4 DG CF- F/G/F/E/ | D2 ED- DG, G,2- || %23
 G,C,D,E, F,3/2G,/4F,/4 E,A, | D,G,- G,/A,/G,/F,/ E,/D,/E,/F,/ G,/A,/_B,/G,/ | %25
 A,/E,/F,/G,/ A,/B,/C/A,/ B,4 | C8 |] %27
V:4
 z8 | z8 | z8 | z8 | z4 z C,D,E, | F,3/2G,/4F,/4 E,A, D,G,- G,/A,/G,/F,/ || %6
 E,/F,/E,/D,/ C,/D,/C,/B,,/ A,,D, A,^F, | G,/A,/_B,/G,/ ^C,D, A,2 E,2 | %8
 A,/B,/C/D/ C/B,/A,/G,/ C z z2 | z4 z G,,A,,B,, | C,3/2D,/4C,/4 B,,E, A,,D,- D,/E,/D,/C,/ | %11
 B,, E,2 D, C, F,2 E,- | E, D,2 E, F,E,/D,/ E,2 | A,,2 z2 z4 | z G,,A,,B,, C,3/2D,/4C,/4 B,,E, | %15
 A,,D,- D,/E,/D,/C,/ B,,_B,,A,,G,, | A,,^F,G,E, D,2 E,=F, | %17
 G,3/2A,/4G,/4 F,_B, E,A,- A,/B,/A,/G,/ | F,/E,/F,/D,/ G,A, D,4- | %19
 D,/E,/D,/C,/ B,,/A,,/G,,/^F,,/ E,,E,^F,G,- | G,A,/G,/ ^F,D, G,4- | G,4 A,2 B,C | %22
 F,/A,/G,/F,/ E,/D,/C,/B,,/ C,/D,/E,/F,/ G,G,, || C, C,3- C,4- | C,8- | C,8- | C,8 |] %27

